app/dist/common/images/anhui-zhongding-se.svg

<svg height="18" viewBox="0 0 18 18" width="18" xmlns="http://www.w3.org/2000/svg"><path d="m0 0h18v18h-18z" fill="#f0f3fa"/><path d="m14.21 9a5.21 5.21 0 1 1 -10.41 0 5.21 5.21 0 0 1 10.4 0zm.79 0a6 6 0 1 1 -12 0 6 6 0 0 1 12 0zm-7-3.74v2.83l-3-1.71v4.8l4.03 2.3 3.97-2.3v-4.8l-1.45 1.04v2.79l-2.52 1.45-2.58-1.45v-1.36l2.91 1.69v-6l-1.36.73z" fill="#0073bc" fill-rule="evenodd"/></svg>

<!-- by TradingView --><svg width="18" height="18" viewBox="0 0 18 18" xmlns="http://www.w3.org/2000/svg"><path fill="#F0F3FA" d="M0 0h18v18H0z"/><path fill-rule="evenodd" d="M14.21 9A5.21 5.21 0 1 1 3.8 9 5.21 5.21 0 0 1 14.2 9ZM15 9A6 6 0 1 1 3 9a6 6 0 0 1 12 0ZM8 5.26v2.83L5 6.38v4.8l4.03 2.3 3.97-2.3v-4.8l-1.45 1.04v2.79l-2.52 1.45-2.58-1.45V8.85l2.91 1.69v-6L8 5.27Z" fill="#0073BC"/></svg>
